X:1
T:Title
%%score ( 1 2 ) 3
L:1/8
Q:1/4=93
M:4/4
K:F
V:1 treble nm="Grand Piano, Soprano"
V:2 treble 
V:3 bass nm="Choir Pad, Christ, My All, Fanny Crosby"
V:1
 C[CF] [FA]2- [FA][B,G][B,F][FA] | [Fc]4 [FA]>[FB] [EG]2- | [EG]2 [EG]>[EA] F4 | %3
w: By~Hubert~Platt~Main * * * * * *|||
 C[CF] [FA]2- [FA][CG][CF][FA] | [Fc]4 [FA]>[FA] [EG]2- | [EG]2 [F=B]>[Fd] [Ec]4 | %6
w: |||
 [Fc]>[GB] [FA]2- [FA][FA][EG][FA] | [EB]4 [EB]>[FA] G2- | G[EG]F[CG] [CA]4 | %9
w: |||
 C[CF] [FA]2- [FA][_EA][EG][EF] | d4 z2 c2 | z8 | z8 |] %13
w: ||||
V:2
 x8 | x8 | x8 | x8 | x8 | x8 | x8 | x8 | x8 | x8 | D2 F2 [Fd]>[Fd] F2- | [CF]2 [EG]>[EA] F4- | %12
 F4 z4 |] %13
V:3
 [F,A,][F,A,] [F,C]2- [F,C][F,B,][F,A,][F,C] | [F,A,]4 [F,C]>[F,D] [C,B,]2- | %2
 [C,B,]2 [C,B,]>[C,C] [F,A,]4 | [F,A,][F,A,] [F,C]2- [F,C][F,B,][F,A,][F,C] | %4
 [F,A,]4 [F,C]>[F,C] [G,C]2- | [G,C]2 [G,D]>[G,=B,] [C,C]4 | %6
 [D,C]>[E,C] [F,C]2- [F,C][F,C][B,C][A,C] | [G,C]4 [G,C]>[F,C] [E,C]2- | %8
 [E,C][C,B,][D,A,][E,G,] F,4 | [F,A,][F,A,] [F,C]2- [F,C][F,C][F,B,][F,A,] | %10
 [B,,B,]4 [B,,G,]>[=B,,_A,] [C,=A,]2- | [C,A,]2 [C,B,]>[C,C] [F,A,]4- | [F,A,]4 z4 |] %13

